assets/icons/qvision/looks_3.svg

<svg width="24" height="24" viewBox="0 0 24 24" fill="none" xmlns="http://www.w3.org/2000/svg">
<g clip-path="url(#clip0_147_3554)">
<path d="M19.01 3H5.01001C3.91001 3 3.01001 3.9 3.01001 5V19C3.01001 20.1 3.91001 21 5.01001 21H19.01C20.11 21 21.01 20.1 21.01 19V5C21.01 3.9 20.11 3 19.01 3ZM15.01 10.5C15.01 11.33 14.34 12 13.51 12C14.34 12 15.01 12.67 15.01 13.5V15C15.01 16.11 14.11 17 13.01 17H9.01001V15H13.01V13H11.01V11H13.01V9H9.01001V7H13.01C14.11 7 15.01 7.89 15.01 9V10.5Z" fill="#323232"/>
</g>
<defs>
<clipPath id="clip0_147_3554">
<rect width="24" height="24" fill="white"/>
</clipPath>
</defs>
</svg>

<svg xmlns="http://www.w3.org/2000/svg" height="24" viewBox="0 0 24 24" width="24"><path d="M.01 0h24v24h-24z" fill="none"/><path d="M19.01 3h-14c-1.1 0-2 .9-2 2v14c0 1.1.9 2 2 2h14c1.1 0 2-.9 2-2V5c0-1.1-.9-2-2-2zm-4 7.5c0 .83-.67 1.5-1.5 1.5.83 0 1.5.67 1.5 1.5V15c0 1.11-.9 2-2 2h-4v-2h4v-2h-2v-2h2V9h-4V7h4c1.1 0 2 .89 2 2v1.5z"/></svg>
